src/pos-icons/format-wrap-top-bottom.svg

<svg height="24" viewBox="0 0 24 24" width="24" xmlns="http://www.w3.org/2000/svg"><path d="m12 7 5 10h-10zm-9-4h18v2h-18zm0 16h18v2h-18z"/></svg>

<?xml version="1.0" encoding="UTF-8"?><!DOCTYPE svg PUBLIC "-//W3C//DTD SVG 1.1//EN" "http://www.w3.org/Graphics/SVG/1.1/DTD/svg11.dtd"><svg xmlns="http://www.w3.org/2000/svg" xmlns:xlink="http://www.w3.org/1999/xlink" version="1.1" id="mdi-format-wrap-top-bottom" width="24" height="24" viewBox="0 0 24 24"><path d="M12,7L17,17H7L12,7M3,3H21V5H3V3M3,19H21V21H3V19Z" /></svg>
